!!!!SEGMENT: pl-sa--168-a-iv-18--001-004_luna-georgius--missa-sanctus.krn
!!!cenid: 17xx:517
!!!COM: Luna, Georgius
!!!COM-rismID: pe41010079
!!!CDT:
!!!CNT:
!!!OPR: Missa
!!!OTL: Sanctus
!!!OMV: 004
!!!PDT:
!!!AGN: Sacred; Mass
!!!YEC: Copyright 2022 Narodowy Instytut Fryderyka Chopina (https://polishscores.org)
!!!YEM: License CC-BY-4.0 (https://creativecommons.org/licenses/by/4.0)
!!!SMS-siglum: PL-SA
!!!SMS-shelfmark: 168/A IV 18
!!!SMS-shelfwork: 001-004 M
!!!SMS-variant:
!!!SMS-altvar:
!!!NIFC-rismSourceID: 1001070167
!!!NIFC-rismChildID: 1001070167
!!!NIFC-islandoraID: none
!!!URL-pdf-islandora:
!!!URL-scan: https://bc.bdsandomierz.pl/dlibra/publication/1554/edition/1522/content @EN{Scan in the Sandomierz Diocese Digital Library} @PL{Skany w portalu Cyfrowa Biblioteka Diecezjalna w Sandomierzu}
!!!IIIF:
!!!ONB-nifc: UWAGA: części Mszy: Kirie, Gloria, Credo, Sanctus, Benedictus, Agnus Dei
!!!AIN: 1 bass 1 organ 1 soprn 1 tenor 2 violn
!!!OMD:
!!!OMD-mod: Adagio
!!!key: G
**kern	**kern	**kern	**kern	**text	**kern	**text	**kern	**text
*part6	*part5	*part4	*part3	*part3	*part2	*part2	*part1	*part1
*staff6	*staff5	*staff4	*staff3	*staff3	*staff2	*staff2	*staff1	*staff1
*ICklav	*ICstr	*ICstr	*ICvox	*	*ICvox	*	*ICvox	*
*Iorgan	*Ivioln	*Ivioln	*Ibass	*	*Itenor	*	*Isoprn	*
*I"[Basso continuo]	*I"Violino Secundo	*I"Violino Primo	*I"Baſso.	*	*I"Tenore.	*	*I"Canto.	*
*mI"Basso continuo	*mI"Violino II	*mI"Violino I	*mI"Basso	*	*mI"Tenore	*	*mI"Soprano	*
*I'bc	*I'vl 2	*I'vl 1	*I'B	*	*I'T	*	*I'S	*
*clefF4	*clefG2	*clefG2	*clefF4	*	*clefC4	*	*clefC1	*
*	*	*	*	*	*mclefGv2	*	*mclefG2	*
*k[f#]	*k[f#]	*k[f#]	*k[f#]	*	*k[f#]	*	*k[f#]	*
*G:	*G:	*G:	*G:	*	*G:	*	*G:	*
*M4/4	*M4/4	*M4/4	*M4/4	*	*M4/4	*	*M4/4	*
*met(c)	*met(c)	*met(c)	*met(c)	*	*met(c)	*	*met(c)	*
*mmet(c)	*mmet(c)	*mmet(c)	*mmet(c)	*	*mmet(c)	*	*mmet(c)	*
=1	=1	=1	=1	=1	=1	=1	=1	=1
!LO:TX:a:Bi:mod= :t=adagio	!LO:TX:a:Bi:mod= :t=adagio	!LO:TX:a:Bi:mod= :t=Adagio	!LO:TX:a:Bi:mod= :t=Adagio	!	!LO:TX:a:Bi:mod= :t=adagio	!	!LO:TX:a:Bi:mod= :t=adagio	!
8G\L	8b\L	8gg\L	4G\	San-	4G/	San-	4b\	San-
8G\	8b\	8gg\	.	.	.	.	.	.
8G\	8b\	8gg\	4G\	-ctuſ	4G/	-ctuſ	4b\	-ctuſ
8G\J	8b\J	8gg\J	.	.	.	.	.	.
*	*	*	*	*	*	*	*2\right	*
!	!	!	!LO:SIC:s=(4d	!LO:MO:null:mod=San-	!	!	!	!LO:SIC:s=San-
8d\L	8a\L	8ff#\L	4d\	.	2F#/	San-	2a\	san-
8D\	8a\	8ff#\	.	.	.	.	.	.
!	!	!	!LO:SIC:s=4D)	!LO:MO:mod=.	!	!	!	!
8D\	8a\	8ff#\	4D\	san-	.	.	.	.
8D\J	8a\J	8ff#\J	.	.	.	.	.	.
=2	=2	=2	=2	=2	=2	=2	=2	=2
!	!	!LO:SIC:s=8gg|L	!	!	!	!	!	!
[1G	8b|\L	8gg\L	4G\	-ctuſ	8G/	-ctuſ	8b\	-ctuſ
!	!LO:SIC:s=(8b	!LO:SIC:s=(8dd	!	!	!LO:SIC:s=(8BL	!	!LO:SIC:s=(8ddL	!LO:SIC:s=San-
.	8b\	8dd\	.	.	8B\L	San-	8dd\L	san-
!	!LO:SIC:s=8cc	!	!	!LO:SIC:s=San-	!LO:SIC:s=8cJ)	!	!LO:SIC:s=8eeJ)	!
.	(8cc\	8ee\	8G\	san-	8c\J	.	8ee\J	.
!	!	!LO:SIC:s=8ffJ)	!	!	!	!	!	!
.	8dd\J)	8ffn\J	8G\	-ctuſ	8d\	-ctuſ	8ffn\	-ctuſ
!	!LO:SIC:s=(8ccL	!	!	!	!	!	!	!
.	8cc\L	(8ee\L	4G\	Do-	(8c\L	Do-	(>8ee\L	Do-
!	!LO:SIC:s=8b)	!	!	!	!	!	!	!
.	8b\	8dd\)	.	.	8B\)J	.	8dd\)J	.
.	(8cc\	(8ee\	8G\	-mi-	8c\	-mi-	8ee\	-mi-
.	8a\J)	8cc\J)	8G\	-nuſ	8A\	-nuſ	8cc\	-nuſ
=3	=3	=3	=3	=3	=3	=3	=3	=3
*2\right	*	*	*	*	*	*	*	*
2G\]	(8b/L	(8dd\L	4G\	De-	(8B\L	De-	(8dd\L	De-
!	!LO:SIC:s=8a)	!	!	!	!	!	!	!
.	8a/	8cc\)	.	.	8A\J)	.	8cc\J)	.
!	!LO:SIC:s=(8b	!	!	!	!	!	!	!
.	8b/	(8dd\	4G\	-us	(8B\L	-us	(8dd\L	-us
.	8g/J)	8b\J)	.	.	8G\J)	.	8b\J)	.
!	!	!	!	!LO:SIC:s=Sa-	!	!	!	!
2D\	(8a/L	(8cc\L	4D\	sa-	(8A/L	Sa-	(8cc\L	Sa-
!	!LO:SIC:s=8g)	!	!	!	!	!	!	!
.	8g/	8b\)	.	.	8G/J)	.	8b\J)	.
!	!LO:SIC:s=(8a	!	!	!	!	!	!	!
.	8a/	(8cc\	4D\	-ba-	(8A/L	-ba-	(8cc\L	-ba-
.	8f#/J)	8a\J)	.	.	8F#/J)	.	8a\J)	.
=4	=4	=4	=4	=4	=4	=4	=4	=4
8G\L	8g/L	8b\L	8G\	-oth	8G/	-oth	8b\	-oth
16G\L	8b/	8gg\	16G\LL	Do-	8G/	Do-	8b\	Do-
16A\JJ	.	.	16A\JJ	.	.	.	.	.
!	!	!	!LO:SIC:s=16BLL	!	!	!	!	!
16B\LL	8b/	8gg\	(16B\LL	-mi-	8G/	-mi-	8b\	-mi-
!	!	!	!LO:SIC:s=16AJJ	!	!	!	!	!
16A\	.	.	16A\JJ)	.	.	.	.	.
16B\	8b/J	8gg\J	16B\LL	-nus	8G/	-nuſ	8b\	-nus
16c\JJ	.	.	16c\JJ	.	.	.	.	.
!LO:TX:t=P:problem=mixed beam	!	!LO:TX:t=P:problem=mixed beam	!	!	!	!	!	!
8d\L	8a/L	8ff#\L	8d\	De-	8F#/	De-	8a\	De-
!	!	!	!LO:TX:t=P:problem=skreślona kreska taktowa	!	!	!	!	!
8D/	8f#/	8a/	8D\	-us	8F#/	-uſ	8a\	-uſ
!	!	!	!	!LO:SIC:s=Sa-	!	!LO:SIC:s=Sa-	!	!
8D/	8g/	8b/	8D\	sa-	8G/	sa-	8b\	Sa-
8D/J	8a/J	8cc/J	8D\	-ba-	8A/	-ba-	8cc\	-ba-
!LO:LB:g=original	!	!	!LO:LB:g=original	!	!LO:LB:g=original	!	!	!
=5	=5	=5	=5	=5	=5	=5	=5	=5
!	!	!LO:TX:t=P:problem=mixed beam	!	!	!	!	!	!
8G\L	8g/L	8b/L	8G\	-oth	8G/	-oth	8b\	-oth
!	!	!	!LO:SIC:s=16GLL	!	!	!	!	!
16G\L	8b/	8gg\	(16G\LL	Do-	8G/	Do-	8b\	Do-
!	!	!	!LO:SIC:s=16AJJ	!	!	!	!	!
16A\JJ	.	.	16A\JJ)	.	.	.	.	.
!	!	!	!	!	!	!	!LO:LB:g=original	!
16B\LL	8b/	8gg\	16B\LL	-mi-	8G/	-mi-	8b\	-mi-
16A\	.	.	16A\JJ	.	.	.	.	.
16B\	8b/J	8gg\J	16B\LL	-nus	8G/	-nuſ	8b\	-nuſ
16c\JJ	.	.	16c\JJ	.	.	.	.	.
!LO:TX:t=P:problem=mixed beam	!	!LO:TX:t=P:problem=mixed beam	!	!	!	!	!	!
8d\L	8a/L	8ff#\L	8d\	De-	8F#/	De-	8a\	De-
8D/	8f#/	8a/	8D\	-us	8F#/	-uſ	8a\	-us
!	!	!	!	!LO:SIC:s=Sa-	!	!LO:SIC:s=Sa-	!	!
8D/	8g/	8b/	8D\	sa-	8G/	sa-	8b\	Sa-
8D/J	8a/J	8cc/J	8D\	-ba-	8A/	-ba-	8cc\	-ba-
=6	=6	=6	=6	=6	=6	=6	=6	=6
2.G\	8g/L	8b\L	4G\	-oth	8G\	-oth	8b\	-oth
!	!	!	!	!	!	!	!LO:SIC:s=(8dd	!LO:SIC:s=Sa-
.	16b/L	16dd\L	.	.	(8B\	sa-	8dd\	[Sa]-
.	16g/JJ	16b\JJ	.	.	.	.	.	.
*	*	*	*2\right	*	*	*	*	*
!	!	!	!LO:SIC:s=(2G	!LO:SIC:s=Sa-	!	!	!	!
.	4cc\	4ee\	2G\	sa-	4c\	.	4ee\	.
.	8b\L	8dd\L	.	.	8B\L	.	8dd\L	.
!	!	!	!	!	!	!	!LO:SIC:s=16ddL	!
.	16b\L	16dd\L	.	.	16B\L	.	(16dd\L	.
!	!	!	!	!	!	!	!LO:SIC:s=16bJJ	!
.	16g\JJ	16b\JJ	.	.	16G\JJ	.	16b\JJ)	.
!	!	!	!LO:SIC:s=8D)	!	!	!	!LO:SIC:s=8cc)	!
4D\	4a\	4cc\	8D\	.	8A\)	.	8cc\	.
.	.	.	8D\	-ba-	8A\	-ba-	8cc\	-ba-
=7	=7	=7	=7	=7	=7	=7	=7	=7
2.G\	8g\L	8b\L	4G\	-oth	8G\	-oth	8b\	-oth
!	!	!	!	!	!LO:SIC:s=(8B	!LO:SIC:s=Sa-	!LO:SIC:s=(8dd	!
.	16b\L	16dd\L	.	.	8B\	sa-	8dd\	Sa-
.	16g\JJ	16b\JJ	.	.	.	.	.	.
!	!	!	!LO:SIC:s=(2G	!LO:SIC:s=Sa-	!LO:SIC:s=4c	!	!	!
.	4cc\	4ee\	2G\	sa-	(4c\	.	4ee\	.
!	!	!LO:LB:g=original	!	!	!	!	!	!
.	8b\L	8dd\L	.	.	8B\L	.	8dd\L	.
!	!	!	!	!	!	!	!LO:SIC:s=16ddL	!
.	16b\L	16dd\L	.	.	16B\L	.	(16dd\L	.
!	!	!	!	!	!	!	!LO:SIC:s=16bJJ	!
.	16g\JJ	16b\JJ	.	.	16G\JJ	.	16b\JJ)	.
!	!	!	!LO:SIC:s=8D)	!	!	!	!LO:SIC:s=8cc)	!
4D\	4a\	4cc\	8D\	.	8A\)	.	8cc\	.
.	.	.	8D\	-ba-	8A\	-ba-	8cc\	-ba-
=8	=8	=8	=8	=8	=8	=8	=8	=8
4G\	16g/LL	16b\LL	4G\	-oth	4G/	-oth	4b\	-oth
.	16b/	16gg\	.	.	.	.	.	.
.	16a/	16ff#\	.	.	.	.	.	.
.	16b/JJ	16gg\JJ	.	.	.	.	.	.
!	!LO:LB:g=original	!	!	!LO:SIC:s=Sa-	!	!LO:SIC:s=Sa-	!	!LO:SIC:s=Sa-
8d\L	16f#/LL	16a\LL	8d\	sa-	8F#/	sa-	8a\	sa-
.	16a/	16ff#\	.	.	.	.	.	.
8D\J	16g/	16ee\	8D\	-ba-	8F#/	-ba-	8a\	-ba-
.	16a/JJ	16ff#\JJ	.	.	.	.	.	.
*	*	*2\right	*	*	*	*	*	*
!	!LO:SIC:s=2b;	!LO:SIC:s=2gg;	!LO:SIC:s=2G;	!LO:SIC:s=-oth.	!LO:SIC:s=2G;	!LO:SIC:s=-oth.	!LO:SIC:s=2b;	!LO:SIC:s=-oth.
2G;\	2b/	2gg\	2G\	-oth	2G/	-oth	2b\	-oth
!	!	!	!LO:LB:g=original	!	!LO:LB:g=original	!	!LO:LB:g=original	!
!	!	!	!	!	!LO:MO:mod==9||	!	!LO:MO:mod==9||	!
=9||	=9||	=9||	=9||	=9||	=9||;	=9||	=9||;	=9||
!!!OMD:
!!!OMD-mod: Allegro
*M3/8	*M3/8	*M3/8	*M3/8	*	*M3/8	*	*M3/8	*
!LO:TX:b:i:mod= :t=Pleni	!LO:TX:b:i:mod= :t=pleni	!LO:TX:b:i:mod= :t=pleni	!	!	!	!	!	!
!LO:TX:a:Bi:mod= :t=Allo	!LO:TX:a:Bi:mod= :t=Allo	!LO:TX:a:Bi:mod= :t=allo	!LO:TX:a:Bi:mod= :t=allo.	!	!	!	!LO:TX:a:Bi:mod= :t=allo.	!
4.GG/	8B/L	8g/L	8G\	Ple-	8B\	Ple-	8g\	Ple-
.	8d/	8b/	8G\	-ni	8d\	-ni	8b\	-ni
.	8c/J	8a/J	8G\	sunt	8c\	sunt	8a\	sunt
=10	=10	=10	=10	=10	=10	=10	=10	=10
!	!	!	!	!LO:SIC:s=cae-	!	!LO:SIC:s=cae-	!	!LO:SIC:s=cae-
4.GG/	8B/L	8g/L	8G\	ce-	8B\	ce-	8g\	ce-
.	8g/	8b/	8G\	-li	8G\	-li	8b\	-li
.	8b/J	8dd/J	8G\	et	8B\	et	8dd\	et
=11	=11	=11	=11	=11	=11	=11	=11	=11
!	!LO:MO:null:mod=8qqb@	!	!	!	!LO:MO:null:mod=8qqB@	!	!	!
.	.	8qqdd/	.	.	.	.	8qqdd/	.
!	!	!	!	!	!LO:SIC:s=(8AL	!	!LO:SIC:s=(8ccL	!
4.D\	8a/L	8cc\L	4.D\	ter-	8A\L	ter-	8cc\L	ter-
!	!LO:SIC:s=(16gL	!	!	!	!LO:SIC:s=16GL	!	!LO:SIC:s=16bL	!
.	16g/L	(16b\L	.	.	(16G\L	.	(16b\L	.
!	!LO:SIC:s=16c)	!	!	!	!LO:SIC:s=16c	!	!LO:SIC:s=16a	!
.	(16c/	16a\)	.	.	(16c\	.	16a\)	.
!	!LO:SIC:s=(16B	!	!	!	!LO:SIC:s=16B	!	!LO:SIC:s=16g	!
.	16B/)	(16g\	.	.	16B\)	.	(16g\	.
!	!LO:SIC:s=16AJJ)	!	!	!	!	!	!	!
.	16A/JJ	16f#\JJ)	.	.	16A\JJ)	.	16f#\JJ)	.
=12	=12	=12	=12	=12	=12	=12	=12	=12
.	8qqA/	8qqf#/	.	.	8qqA/	.	8qqf#/	.
!LO:TX:t=P:problem=mixed beam	!	!	!	!	!	!	!	!
8G\L	4.B/	4.g/	4.G\	-ra	4.B\	-ra	4.g\	-ra
8D\	.	.	.	.	.	.	.	.
8GG/J	.	.	.	.	.	.	.	.
=13	=13	=13	=13	=13	=13	=13	=13	=13
4.GG/	8B/L	8g/L	8G\	glo-	8B\	glo-	8g\	glo-
.	8d/	8b/	8G\	-ri-	8d\	-ri-	8b\	-ri-
.	8c/J	8a/J	8G\	-a	8c\	-a	8a\	-a
=14	=14	=14	=14	=14	=14	=14	=14	=14
4.GG/	8B/L	8g/L	8G\	glo-	8B\	glo-	8g\	glo-
.	8g/	8b/	8G\	-ri-	8G\	-ri-	8b\	-ri-
!	!	!	!	!	!LO:SIC:v:s=8B	!	!	!
.	8b/J	8dd/J	8G\	-a	8A\	-a	8dd\	-a
=15	=15	=15	=15	=15	=15	=15	=15	=15
!	!	!	!	!	!LO:MO:null:mod=8qqB@	!	!	!
.	8qqb/	8qqdd/	.	.	.	.	8qqdd/	.
!	!	!	!	!	!LO:SIC:s=(8AL	!	!LO:SIC:s=(8ccL	!
4.D\	8a/L	8cc\L	4.D\	tu-	8A\L	tu-	8cc\L	tu-
!	!	!	!	!	!LO:SIC:s=16GL	!	!LO:SIC:s=16bL	!
.	(16g/L	(16b\L	.	.	(16G\L	.	(16b\L	.
!	!	!	!	!	!LO:SIC:s=16c	!	!	!
.	16c/)	16a\)	.	.	(16c\	.	16a\	.
!	!LO:SIC:s=(16B	!	!	!	!LO:SIC:s=16B	!	!	!
.	16B/	(16g\	.	.	16B\)	.	16g\	.
!	!LO:SIC:s=16AJJ)	!LO:TX:t=P:problem=brak kreski taktowej	!	!	!	!	!	!
.	16A/JJ	16f#\JJ)	.	.	16A\JJ)	.	16f#\JJ)	.
=16	=16	=16	=16	=16	=16	=16	=16	=16
!LO:TX:a:i:mod= :t=vi	!	!	!	!	!	!	!	!
!LO:TX:t=P:problem=mixed beam	!	!	!	!	!	!	!	!
8G\L	4B/	4g/	4G\	-a	4B\	-a	4g\	-a
8D\	.	.	.	.	.	.	.	.
!	!	!	!	!	!	!	!	!LO:SIC:s=ple-
8GG/J	8cc\	8ee\	8G\	ple-	8c\	ple-	8ee\	Ple-
=17	=17	=17	=17	=17	=17	=17	=17	=17
!LO:TX:a:i:mod= :t=de	!	!	!	!	!	!	!	!
!LO:TX:t=P:problem=takty 17-20 dopisane na końcu strony; miejsce wstawienia tych taktów oznaczone przez "vide"	!LO:SIC:s=(8ccL	!	!	!	!	!	!	!
4.GG/	8cc\L	(8ee\L	8G\	.	8c\	.	8ee\	.
!	!LO:SIC:s=8b)	!	!	!	!	!	!	!
.	8b\	8dd\J)	8G\	-ni	8B\	-ni	8dd\	-ni
!	!LO:SIC:s=8b|J	!	!	!	!	!	!	!
.	8b\J	(16gg\LL	8G\	sunt	8B\	sunt	8dd\	sunt
.	.	16dd\JJ)	.	.	.	.	.	.
!	!	!	!LO:LB:g=original	!	!LO:LB:g=original	!	!LO:LB:g=original	!
=18	=18	=18	=18	=18	=18	=18	=18	=18
!	!	!	!	!	!LO:MO:null:mod=8qqB@	!	!	!
.	8qqb/	8qqdd/	.	.	.	.	8qqdd/	.
!LO:TX:t=P:problem=mixed beam	!	!LO:SIC:s=(8ccL	!	!LO:SIC:s=cae-	!	!LO:SIC:s=cae-	!	!LO:SIC:s=cae-
8D\L	(8a/L	8cc\L	8D\	Ce-	8A\	Ce-	8cc\	Ce-
!	!	!LO:SIC:s=8b)	!	!	!	!	!	!
8G\	8g)/	8b\J	8G\	-li	8G\	-li	8b\	-li
!	!	!LO:SIC:s=8ee|J	!	!	!	!	!	!
8GG/J	8cc/J|	8ee\	8G\	sunt	8c\	sunt	8ee\	sunt
!	!	!LO:LB:g=original	!	!	!	!	!	!
=19	=19	=19	=19	=19	=19	=19	=19	=19
!	!LO:SIC:s=(8ccL	!	!	!LO:SIC:s=cae-	!	!LO:SIC:s=cae-	!	!LO:SIC:s=cae-
4.GG/	8cc\L	(8ee\L	8G\	ce-	8c\	Ce-	8ee\	ce-
!	!LO:SIC:s=8b)	!	!	!	!	!	!	!
.	(8b\	8dd\J)	8G\	-li	8B\	-li	8dd\	-li
!	!LO:SIC:s=8b|J	!	!	!	!	!	!	!
.	8b\J)	(16gg\LL	8G\	et	8B\	et	8dd\	et
.	.	16dd\JJ)	.	.	.	.	.	.
=20	=20	=20	=20	=20	=20	=20	=20	=20
!	!	!	!	!	!LO:MO:null:mod=8qqB@	!	!LO:MO:null:mod=8qqdd@	!
.	8qqb/	8qqdd/	.	.	.	.	.	.
!	!LO:SIC:s=(8aL	!LO:SIC:s=(8ccL	!LO:SIC:v:s=8D	!	!	!	!	!
8D\L	8a\L	8cc\L	8E\	ter-	8A\	ter-	8cc\	ter-
!	!LO:SIC:s=8g)	!LO:SIC:s=8b)	!	!	!	!	!	!
8G\	8g\J	8b\	8G\	-ra	8G\	-ra	8b\	-ra
!	!LO:SIC:s=8cc#|J)	!LO:SIC:s=8ee|J	!LO:SIC:s=(8G	!	!	!	!LO:SIC:s=(8ee	!
8A\J	8cc#X\	8ee\J	8G\	glo-	(8c#X\	glo-	8ee\	glo-
!LO:LB:g=original	!	!	!	!	!	!	!	!
=21	=21	=21	=21	=21	=21	=21	=21	=21
!	!	!	!LO:SIC:s=8d)	!	!LO:SIC:s=8d)	!	!LO:SIC:s=8ff#)	!
4D\	8dd\L	8ff#\L	8d\	.	8d\	.	8ff#\	.
!	!	!	!	!	!LO:SIC:s=8e	!	!	!
.	8ee\	8gg\	8D\	-ri-	8e\)	-ri-	8gg\	-ri-
8A\	8cc#X\J	8ee\J	8A\	-a	8c#X\	-a	8ee\	-a
!	!LO:LB:g=original	!	!	!	!	!	!	!
=22	=22	=22	=22	=22	=22	=22	=22	=22
4d\	8dd\L	8ff#\L	8D\	glo-	8d\	glo-	8ff#\	glo-
.	8ee\	8gg\	8G\	-ri-	8e\	-ri-	8gg\	-ri-
8A\	8cc#X\J	8ee\J	8A\	-a	8c#X\	-a	8ee\	-a
=23	=23	=23	=23	=23	=23	=23	=23	=23
!LO:TX:t=P:problem=mixed beam	!	!	!LO:TX:t=P:problem=mixed beam	!	!	!	!LO:SIC:s=(8ff#L	!
8D\L	8dd\L	8ff#\L	8D\L	tu-	(8d\L	tu-	8ff#\L	tu-
!	!	!LO:SIC:s=(16ggL	!	!	!	!	!LO:SIC:s=16ggL	!
8A\	(16b\L	16gg\L	8A\	.	16B\L	.	(16gg\L	.
!	!LO:SIC:s=16g)	!LO:SIC:s=16ee)	!	!	!	!	!LO:SIC:s=16ee	!
.	16g\JJ)	16ee\	.	.	16G\	.	16ee\)	.
!	!LO:SIC:s=(16f#	!LO:SIC:s=(16dd	!	!	!	!	!LO:SIC:s=16dd	!
8AA/J	(16f#/LL	16dd\	8AA/J	.	16F#\	.	(16dd\	.
!	!	!LO:SIC:s=16cc#JJ)	!	!	!	!	!	!
.	16e/JJ)	16cc#X\JJ	.	.	16E\JJ)	.	16cc#X\JJ)	.
=24	=24	=24	=24	=24	=24	=24	=24	=24
!	!	!LO:SIC:v:s=8qqcc#/	!	!	!	!	!LO:SIC:v:s=8qqcc#/	!
.	8qqe/	8qqcc/	.	.	8qqE/	.	8qqcc/	.
8D\L	4f#/	4dd\	4D\	-a	4F#/	-a	4dd\	-a
8F#\	.	.	.	.	.	.	.	.
!	!	!	!LO:SIC:s=(8A	!	!	!	!LO:SIC:s=(8ee	!
8A\J	8cc#X\	8ee\	8A\	glo-	(8c#X\	glo-	8ee\	glo-
=25	=25	=25	=25	=25	=25	=25	=25	=25
!	!	!	!LO:SIC:s=8d)	!	!LO:SIC:s=8d)	!	!LO:SIC:s=8ff#)	!
4D\	8dd\L	8ff#\L	8d\	.	8d\	.	8ff#\	.
!	!	!	!	!	!LO:SIC:s=8e	!	!	!
.	8ee\	8gg\	8d\	-ri-	8e\)	-ri-	8gg\	-ri-
8A\	8cc#X\J	8ee\J	8A\	-a	8c#X\	-a	8ee\	-a
!	!	!	!LO:LB:g=original	!	!LO:LB:g=original	!	!LO:LB:g=original	!
=26	=26	=26	=26	=26	=26	=26	=26	=26
4d\	8dd\L	8ff#\L	8D\	glo-	8d\	glo-	8ff#\	glo-
.	8ee\	8gg\	8D\	-ri-	8e\	-ri-	8gg\	-ri-
8A\	8cc#X\J	8ee\J	8A\	-a	8c#X\	-a	8ee\	-a
=27	=27	=27	=27	=27	=27	=27	=27	=27
!LO:TX:t=P:problem=mixed beam	!	!	!LO:TX:t=P:problem=mixed beam	!	!	!	!LO:SIC:s=(8ff#L	!
8D\L	8dd\L	8ff#\L	8D\L	tu-	(8d\L	tu-	8ff#\L	tu-
!	!	!LO:SIC:s=(16ggL	!	!	!	!	!LO:SIC:s=16ggL	!
8A\	(16b\L	16gg\L	8A\	.	16B\L	.	(16gg\L	.
!	!LO:SIC:s=16g)	!LO:SIC:s=16ee)	!	!	!	!	!LO:SIC:s=16ee	!
.	16g\JJ)	16ee\	.	.	16G\	.	16ee\)	.
!	!LO:SIC:s=(16f#	!LO:SIC:s=(16dd	!	!	!	!	!LO:SIC:s=16dd	!
8AA/J	(16f#/LL	16dd\	8AA/J	.	16F#\	.	(16dd\	.
!	!	!LO:SIC:s=16cc#JJ)	!	!	!	!	!LO:SIC:v:s=16cc#JJ)	!
.	16e/JJ)	16cc#X\JJ	.	.	16E\JJ)	.	16cc\JJ)	.
=28	=28	=28	=28	=28	=28	=28	=28	=28
!	!LO:MO:null:mod=8qqe@	!LO:MO:null:mod=8qqcc#@	!	!	!	!	!LO:MO:null:mod=8qqcc#@	!
.	.	.	.	.	8qqE/	.	.	.
[4.D\	4f#/	4dd\	4.D\	-a	4.F#/	-a	4.dd\	-a
.	(16cc#X\LL	(16ee\LL	.	.	.	.	.	.
.	16dd\JJ)	16ff#\JJ)	.	.	.	.	.	.
=29	=29	=29	=29	=29	=29	=29	=29	=29
!	!	!	!	!	!	!	!LO:SIC:s=4.dd	!
4.D\_	4f#/	4dd\	4.D\	glo-	4.F#/	glo-	[4.dd\	glo-
.	(16dd\LL	(16ff#\LL	.	.	.	.	.	.
.	16ff#\JJ)	16aa\JJ)	.	.	.	.	.	.
=30	=30	=30	=30	=30	=30	=30	=30	=30
!	!	!	!	!	!	!	!LO:SIC:s=4dd	!
4.D\_	4f#/	4dd\	4D\	-ri-	4F#/	-ri-	4dd\]	-ri-
.	(16cc#X\LL	(16ee\LL	8D\	-a	16G/LL	-a	16ee\LL	-a
.	16dd\JJ)	16ff#\JJ)	.	.	16A/JJ	.	16ff#\JJ	.
=31	=31	=31	=31	=31	=31	=31	=31	=31
!	!	!	!	!	!	!	!LO:MO:mod=4.dd	!
4.D\]	4f#/	4dd\	4.D\	tu-	4.F#/	tu-	4dd\	tu-
!	!LO:SIC:s=(16ddL	!	!	!	!	!	!LO:MO:mod=.	!
.	16dd\LL	(16ff#\LL	.	.	.	.	8r	.
!	!LO:SIC:s=16ff#JJ)	!	!	!	!	!	!	!
.	16ff#\JJ	16aa\JJ)	.	.	.	.	.	.
=32	=32	=32	=32	=32	=32	=32	=32	=32
!LO:TX:t=P:problem=mixed beam	!	!	!	!	!	!	!	!
8D/L	4f#/	4dd\	4D\	-a	4F#/	-a	4dd\	-a
16d\L	.	.	.	.	.	.	.	.
16cn\	.	.	.	.	.	.	.	.
16B\	8r	8r	8r	.	8r	.	8r	.
16A\JJ	.	.	.	.	.	.	.	.
=33	=33	=33	=33	=33	=33	=33	=33	=33
4.G\	8B/L	8g/L	8G\	ple-	8B\	ple-	8g\	ple-
.	8d/	8b/	8G\	-ni	8d\	-ni	8b\	-ni
!	!	!	!	!	!LO:SIC:s=8c	!	!	!
.	8c/J	8a/J	8G\	sunt	8cn\	sunt	8a\	sunt
!	!	!LO:LB:g=original	!	!	!	!	!	!
=34	=34	=34	=34	=34	=34	=34	=34	=34
!	!	!	!	!LO:SIC:s=cae-	!	!LO:SIC:s=cae-	!	!LO:SIC:s=cae-
4.G\	8B/L	8g/L	8G\	ce-	8B\	ce-	8g\	ce-
.	8g/	8b/	8G\	-li	8G\	-li	8b\	-li
.	8b/J	8dd/J	8G\	et	8B\	et	8dd\	et
=35	=35	=35	=35	=35	=35	=35	=35	=35
!	!	!	!	!	!LO:MO:null:mod=8qqB@	!	!	!
.	8qqb/	8qqdd/	.	.	.	.	8qqdd/	.
!	!	!	!	!	!	!	!LO:SIC:s=(8ccL	!
4.D\	8a/L	8cc\L	4.D\	ter-	(8A\L	ter-	8cc\L	ter-
!	!	!	!	!	!	!	!LO:SIC:s=16bL	!
.	(16g/L	(16b\L	.	.	16G\L	.	(16b\L	.
!	!LO:SIC:s=16c)	!	!	!	!	!	!	!
.	16cn/)	16a\)	.	.	16c\	.	16a\	.
!	!LO:SIC:s=(16B	!	!	!	!	!	!	!
.	16B/	(16g\	.	.	16B\	.	16g\	.
!	!LO:SIC:s=16AJJ)	!	!	!	!	!	!	!
.	16A/JJ	16f#\JJ)	.	.	16A\JJ)	.	16f#\JJ)	.
!	!LO:LB:g=original	!	!LO:LB:g=original	!	!LO:LB:g=original	!	!	!
=36	=36	=36	=36	=36	=36	=36	=36	=36
!LO:TX:t=P:problem=mixed beam	!	!	!	!	!	!	!	!
.	8qqA/	8qqf#/	.	.	8qqA/	.	8qqf#/	.
8G\L	4.B/	4.g/	4.G\	-ra	4.B\	-ra	4.g\	-ra
8D\	.	.	.	.	.	.	.	.
8GG/J	.	.	.	.	.	.	.	.
!	!	!	!	!	!	!	!LO:LB:g=original	!
=37	=37	=37	=37	=37	=37	=37	=37	=37
4.GG/	8B/L	8g/L	8G\	glo-	8B\	glo-	8g\	glo-
.	8d/	8b/	8G\	-ri-	8d\	-ri-	8b\	-ri-
.	8c/J	8a/J	8G\	-a	8c\	-a	8a\	-a
=38	=38	=38	=38	=38	=38	=38	=38	=38
4.GG/	8B/L	8g/L	8G\	glo-	8B\	glo-	8g\	glo-
.	8g/	8b/	8G\	-ri-	8G\	-ri-	8b\	-ri-
.	8b/J	8dd/J	8G\	-a	8B\	-a	8dd\	-a
!LO:LB:g=original	!	!	!	!	!	!	!	!
=39	=39	=39	=39	=39	=39	=39	=39	=39
!	!	!	!	!	!LO:MO:null:mod=8qqB@	!	!	!
.	8qqb/	8qqdd/	.	.	.	.	8qqdd	.
!	!	!LO:MO:mod=8cc@L	!	!	!	!	!LO:SIC:s=(8ccL	!
4.D\	8a/L	16cc\LL	4.D\	tu-	(8A\L	tu-	8cc\L	tu-
!	!	!LO:MO:mod=.	!	!	!	!	!	!
.	.	16cc\	.	.	.	.	.	.
!	!	!	!	!	!	!	!LO:SIC:s=16bL	!
.	(16g/L	(16b\	.	.	16G\L	.	(16b\L	.
.	16c/)	16a\)	.	.	16c\	.	16a\	.
!	!LO:SIC:s=(16B	!	!	!	!	!	!	!
.	16B/	(16g\	.	.	16B\	.	16g\	.
!	!LO:SIC:s=16AJJ)	!	!	!	!	!	!	!
.	16A/JJ	16f#\JJ)	.	.	16A\JJ)	.	16f#\JJ)	.
=40	=40	=40	=40	=40	=40	=40	=40	=40
.	8qqA/	8qqf#/	.	.	8qqA/	.	8qqf#/	.
!LO:TX:t=P:problem=mixed beam	!	!	!	!	!	!	!	!
8G\L	4B/	4g/	4G\	-a	4B\	-a	4g\	-a
8GG/	.	.	.	.	.	.	.	.
!	!	!	!LO:SIC:s=[8G	!	!LO:SIC:s=[8c	!	!	!
8G\J	8cc\	8ee\	8G\	ple-	8c\	ple-	[8ee\	ple-
=41	=41	=41	=41	=41	=41	=41	=41	=41
!	!LO:SIC:s=(8ccL	!	!LO:SIC:s=8G]	!	!LO:SIC:s=8c]	!	!	!
4.G\	8cc\L	(8ee\L	8G\	.	(8c\	.	8ee\]	.
!	!LO:SIC:s=8b)	!	!	!	!LO:SIC:s=8B	!	!	!
.	8b\J	8dd\J)	8G\	-ni	8B\)	-ni	8dd\	-ni
!	!LO:SIC:s=8b|J	!LO:SIC:s=(16ggLL	!	!	!	!	!	!
.	8b\	16gg\LL	8G\	sunt	8B\	sunt	8dd\	sunt
!	!	!LO:SIC:s=16ddJJ)	!	!	!	!	!	!
.	.	16dd\JJ	.	.	.	.	.	.
=42	=42	=42	=42	=42	=42	=42	=42	=42
.	8qqb/	8qqdd/	.	.	8qqB/	.	8qqdd/	.
!LO:TX:t=P:problem=mixed beam	!LO:SIC:s=(8aL	!LO:SIC:s=(8ccL	!	!LO:SIC:s=cae-	!	!LO:SIC:s=cae-	!	!LO:SIC:s=cae-
8D\L	8a/L	8cc/L	8D\	ce-	8A\	ce-	8cc\	ce-
!	!LO:SIC:s=8g)	!LO:SIC:s=8b)	!	!	!	!	!	!
8G\	(8g/	8b/	8G\	-li	8G\	-li	8b\	-li
!	!LO:SIC:v:s=8cc|J	!LO:SIC:s=8ee|J	!	!	!	!	!	!
8GG/J	8a/J)	8ee/J	8G\	sunt	8c\	sunt	8ee\	sunt
!	!	!	!LO:LB:g=original	!	!	!	!	!
=43	=43	=43	=43	=43	=43	=43	=43	=43
!	!LO:SIC:s=(8ccL	!	!	!LO:SIC:s=cae-	!	!LO:SIC:s=cae-	!	!LO:SIC:s=cae-
4.GG/	8cc/L	(8ee\L	8G\	ce-	8c\	ce-	8ee\	ce-
!	!LO:SIC:s=8b)	!	!	!	!	!	!	!
.	8b/	8dd\J)	8G\	-li	8B\	-li	8dd\	-li
!	!LO:SIC:s=8b|J	!LO:SIC:s=(16ggLL	!	!	!	!	!	!
.	8b/J	16gg\LL	8G\	et	8B\	et	8dd\	et
!	!	!LO:SIC:s=16ddJJ)	!	!	!	!	!	!
.	.	16dd\JJ	.	.	.	.	.	.
!	!	!	!	!	!LO:LB:g=original	!	!	!
=44	=44	=44	=44	=44	=44	=44	=44	=44
.	8qqb/	8qqdd/	.	.	8qqB/	.	8qqdd/	.
!	!	!LO:SIC:s=(8ccL	!	!	!	!	!	!
8D\L	(8a/L	8cc\L	8D\	ter-	8A\	ter-	8cc\	ter-
!	!	!LO:SIC:s=8b)	!	!	!	!	!	!
8G\	8g/)	8b\	8G\	-ra	8G\	-ra	8b\	-ra
!	!	!LO:SIC:s=8a|J	!	!	!	!	!	!
8D\J	8f#/J|	8a\J	8D\	glo-	(>8F#/	glo-	(8a\	glo-
=45	=45	=45	=45	=45	=45	=45	=45	=45
!	!	!	!	!	!LO:SIC:s=8G)	!	!	!
4GG/	8g/L	8b\L	8G\	.	8G/	.	8b\)	.
!	!	!	!	!	!LO:SIC:s=8A	!	!	!
.	8a/	8cc\	8G\	-ri-	8A/)	-ri-	8cc\	-ri-
8D\	8f#/J	8a\J	8D\	-a	8F#/	-a	8a\	-a
!	!	!	!	!	!	!	!LO:LB:g=original	!
=46	=46	=46	=46	=46	=46	=46	=46	=46
!	!	!LO:SIC:s=(8bL	!	!	!	!	!	!
4G\	(8g/L	8b\L	8G\	glo-	8G/	glo-	8b\	glo-
!	!	!LO:SIC:s=8cc)	!	!	!	!	!	!
.	8a/)	8cc\	8G\	-ri-	8A/	-ri-	8cc\	-ri-
!	!	!LO:SIC:s=8a|J	!	!	!	!	!	!
8D\	8f#/J|	8a\J	8D\	-a	8F#/	-a	8a\	-a
=47	=47	=47	=47	=47	=47	=47	=47	=47
!	!	!	!	!	!	!	!LO:SIC:s=(8bL	!
8GG/L	8g/L	8b\L	8G\L	tu-	(8G/L	tu-	8b\L	tu-
!	!	!LO:SIC:s=(16ccL	!	!	!	!	!LO:SIC:s=16ccL	!
8C/	(16e/L	16cc\L	8C\	.	16A/L	.	(16cc\L	.
!	!	!LO:SIC:s=16a)	!	!	!	!	!	!
.	16c/)	16a\	.	.	16c/	.	16a\	.
!	!LO:SIC:s=(16B	!LO:SIC:s=(16g	!	!	!	!	!	!
8D/J	16B/	16g\	8D\J	.	16B/	.	16g\	.
!	!LO:SIC:s=16AJJ)	!LO:SIC:s=16f#JJ)	!	!	!	!	!	!
.	16A/JJ	16f#\JJ	.	.	16A/JJ)	.	16f#\JJ)	.
!	!	!LO:LB:g=original	!	!	!	!	!	!
=48	=48	=48	=48	=48	=48	=48	=48	=48
!	!LO:MO:null:mod=8qqA@	!	!	!	!LO:MO:null:mod=8qqA@	!	!LO:MO:null:mod=8qqf#@	!
.	.	8qqf#/	.	.	.	.	.	.
8GG/L	4B/	4g/	4GG/	-a	4B\	-a	4g\	-a
8BB/	.	.	.	.	.	.	.	.
!	!	!	!LO:SIC:s=(8D	!	!LO:SIC:s=(8F#	!	!	!
8D/J	8f#/	8a/	8D\	glo-	8F#/	glo-	(8a\	glo-
=49	=49	=49	=49	=49	=49	=49	=49	=49
!	!	!	!LO:SIC:s=8G)	!	!LO:SIC:s=8G)	!	!	!
4GG/	8g/L	8b\L	8G\	.	(<8G/	.	8b\)	.
.	8a/	8cc\	8G\	-ri-	8A/	-ri-	8cc\	-ri-
!	!	!LO:SIC:v:s=8a\J	!	!	!LO:SIC:s=8F#	!	!	!
8D/	8f#/J	8b\J	8D\	-a	8F#/)	-a	8a\	-a
!	!LO:LB:g=original	!	!LO:LB:g=original	!	!	!	!	!
=50	=50	=50	=50	=50	=50	=50	=50	=50
4G\	8g/L	8b\L	8G\	glo-	8G/	glo-	8b\	glo-
.	8a/	8cc\	8G\	-ri-	8A/	-ri-	8cc\	-ri-
8D\	8f#/J	8a\J	8D\	-a	8F#/	-a	8a\	-a
=51	=51	=51	=51	=51	=51	=51	=51	=51
!	!	!	!	!	!	!	!LO:SIC:s=(8bL	!
8GG/L	8g/L	8b\L	8G\L	tu-	(8G\L	tu-	8b\L	tu-
!	!	!	!	!	!	!	!LO:SIC:s=16ccL	!
8C/	(16e/L	(16cc\L	8E\	.	16A\L	.	(16cc\L	.
.	16c/)	16a\)	.	.	16c\	.	16a\	.
!	!LO:SIC:s=(16B	!	!	!	!	!	!	!
8D/J	16B/	(16g\	8F#\J	.	16B\	.	16g\	.
!	!LO:SIC:s=16AJJ)	!	!	!	!	!	!	!
.	16A/JJ	16f#\JJ)	.	.	16A\JJ)	.	16f#\JJ)	.
!	!	!	!	!	!LO:LB:g=original	!	!	!
=52	=52	=52	=52	=52	=52	=52	=52	=52
!	!LO:MO:null:mod=8qqA@	!LO:MO:null:mod=8qqf#@	!	!	!LO:MO:null:mod=8qqA@	!	!	!
.	.	.	.	.	.	.	8qqf#/	.
4.GG/	4B/	4g/	4GG/	-a	4B\	-a	4g\	-a
!	!	!	!LO:SIC:s=[8G	!	!	!	!	!
.	(16f#/LL	(16a/LL	8G\	glo-	[8d\	glo-	(16a\LL	glo-
!	!	!	!	!	!	!	!LO:SIC:s=16bJJ	!
.	16g/JJ)	16b/JJ)	.	.	.	.	16b\JJ)	.
=53	=53	=53	=53	=53	=53	=53	=53	=53
!	!	!	!LO:MO:mod=4.G]	!	!	!	!	!
4.GG/	4B/	4g/	4G\	.	4.d\]	.	4g\	.
!	!LO:SIC:s=(16gLL	!	!LO:MO:mod=.	!	!	!	!LO:SIC:s=16bLL	!
.	16g/LL	(16b/LL	8r	.	.	.	(16b\LL	.
!	!LO:SIC:s=16bJJ)	!	!	!	!	!	!	!
.	16b/JJ	16dd/JJ)	.	.	.	.	16dd\JJ)	.
!LO:LB:g=original	!	!	!	!	!	!	!	!
=54	=54	=54	=54	=54	=54	=54	=54	=54
4.GG/	4B/	4g/	4G\	-ri-	4d\	-ri-	4g\	-ri-
!	!LO:SIC:s=(16f#LL	!	!	!	!	!	!	!
.	16f#/LL	(16a/LL	8G\	-a	8d\	-a	(16a\LL	-a
!	!LO:SIC:s=16gJJ)	!	!	!	!	!	!	!
.	16g/JJ	16b/JJ)	.	.	.	.	16b\JJ)	.
=55	=55	=55	=55	=55	=55	=55	=55	=55
!	!	!	!	!	!	!	!LO:SIC:s=(4g	!
4.GG/	4B/	4g/	4.G\	tu-	4.d\	tu-	4g\	tu-
!	!LO:SIC:s=(16gLL	!	!	!	!	!	!LO:SIC:s=16bLL	!
.	16g/LL	(16b/LL	.	.	.	.	(16b\LL	.
!	!LO:SIC:s=16bJJ)	!	!	!	!	!	!	!
.	16b/JJ	16dd/JJ)	.	.	.	.	16dd\JJ)	.
=56	=56	=56	=56	=56	=56	=56	=56	=56
!LO:MO:mod=4GG	!	!	!	!LO:SIC:s=-a.	!	!LO:SIC:s=-a.	!	!LO:SIC:s=-a.
4.GG/	4B/	4g/	4G\	-a	4d\	-a	4g\	-a
!LO:MO:null:mod=8r@	!	!	!	!	!	!	!	!
.	8r	8r	8r	.	8r	.	8r	.
!LO:MO:mod===	!LO:MO:mod===	!LO:MO:mod===	!LO:MO:mod===	!	!LO:MO:mod===	!	!LO:MO:mod===	!
==;;	==;;	==;	==;	==	==;	==	==;	==
*-	*-	*-	*-	*-	*-	*-	*-	*-
!!!system-decoration: [vox][(str)][klav]
!!!RDF**kern: > = above
!!!RDF**kern: < = below
!!!RDF**kern: | = vertical stroke
!!LO:MO:mod
!! !!!RDF**kern: @ = marked note, color=grey
!!LO:MO:end
!!!filter-modern: shed -e "s/^(\d+[\/\\]right)/$1yy/I" | shed -e "s/TX(.*):t=P:/tx$1:t=P:/LG" | shed -k -e "s/([^a-gA-Gn#X-])[<>]/$1/g" | sic -sq | modori -m | autostem -r | tie -s | humtr -p
!!!ENC: Andrzej Gręziak
!!!END: 2020-05-19
!!!EED: Antoni Szymański
!!!EEV: 2020-09-29
!!!EED-revision: Andrzej Kubiczek
!!!EEV-revision: 2025-03-12
!!!ENC-modern: Andrzej Kubiczek
!!!END-modern: 2025-03-12
